X:355
T:Irish Lamentation
%%MIDI beat 100 95 80
%%MIDI gchord ccc
%%MIDI program 79
%%MIDI chordprog 89
S:Colin Hume's website,  colinhume.com  - chords can also be printed below the stave.
Q:1/4=112
C:Walsh, c.1735
M:3/4
L:1/8
K:G
P:A
|: GA | "G"B2 B2 Bc | "Em"B3 A G2 | "Am"a2 A2 AB | "D"A4 GA |\
"G"B2 cB AG | "C"E3 G FE | "D"D2 G2 "C"G2 | "G"G4 :|
P:B
|: G2 | "G"B2 d2 d2 | "D/F#"d>e d>B A>B | "Em"G2 g2 g2 | "C"g4 ed |\
"G"B2 d2 d2 | "Bm"d>e d>B A>B | "Am"G2 g2 g2 | "G"g4 de |
"Dm"=f>g f>g f>g | "C"e>d e>g e>g | "G/B"d2 "C"ed "Am"cB | "D7"A4 GA |\
"G"B2 cB AG | "C"E3 G FE | "D"D2 G2 "C"G2 | "G"G4 :|

